X: 32076
T: Penny Candle, The
R: reel
M: 4/4
K: Dmajor
|:Addf adfd|Adfa g2 ec|Addc AGFD|E=CAG EFGB|
Addf adfd|Adfa g2 ed|e3c dfed|cAGE D4:|
|:d2fd Adfa|g2 fa gedB|=c2 ec Gced|cAaf gece|
d2fd Adfa|g2 fa gedB|cdec dfed|cAGE D4:|

